lib/flags/m/EC.svg

<svg xmlns="http://www.w3.org/2000/svg" fill="none" viewBox="0 0 20 15"><mask id="EC_svg__a" width="20" height="15" x="0" y="0" mask-type="alpha" maskUnits="userSpaceOnUse"><path fill="#fff" d="M0 0H20V15H0z"/></mask><g mask="url(#EC_svg__a)"><path fill="#2E42A5" fill-rule="evenodd" d="M0 0V15H20V0H0Z" clip-rule="evenodd"/><mask id="EC_svg__b" width="20" height="15" x="0" y="0" mask-type="alpha" maskUnits="userSpaceOnUse"><path fill="#fff" fill-rule="evenodd" d="M0 0V15H20V0H0Z" clip-rule="evenodd"/></mask><g mask="url(#EC_svg__b)"><path fill="#FECA00" fill-rule="evenodd" d="M0 0V7.5H20V0H0Z" clip-rule="evenodd"/><path fill="#E31D1C" fill-rule="evenodd" d="M0 11.25V15H20V11.25H0Z" clip-rule="evenodd"/><path fill="#7B2900" fill-rule="evenodd" d="M5.75797 3.61993C5.68271 3.45018 8.5771 2.59119 8.79398 2.59119C9.01085 2.59119 9.28517 3.10556 9.28517 3.10556L11.0454 3.24794C11.0454 3.24794 10.8375 2.59119 11.0454 2.59119C11.2534 2.59119 14.4402 3.69816 14.4402 3.69816C14.4402 3.69816 10.4564 4.17838 10.4564 4.2865C10.4564 4.39463 10.7173 4.98823 10.7173 4.98823L9.9806 5.22964C9.9806 5.22964 10.0239 4.51428 9.90374 4.51428C9.78362 4.51428 9.42701 5.36989 9.42701 5.36989L9.07731 4.2865C9.07731 4.2865 5.83323 3.78968 5.75797 3.61993Z" clip-rule="evenodd"/><path fill="#FECA00" d="M5.77039 6.26123L6.55836 6.44965C5.73393 9.89736 6.49596 11.5508 8.84239 11.7044L8.78945 12.5129C5.84895 12.3203 4.84329 10.1383 5.77039 6.26123Z"/><path fill="#07138E" d="M6.25029 5.79651L7.05074 5.92177C6.48614 9.52972 6.93829 11.1611 8.20558 11.1165L8.2341 11.9262C6.20939 11.9975 5.61533 9.85407 6.25029 5.79651Z"/><path fill="#E10001" d="M7.06048 5.46558L7.86092 5.59084C7.29632 9.19878 7.74847 10.8302 9.01576 10.7855L9.04428 11.5952C7.01958 11.6665 6.42551 9.52313 7.06048 5.46558Z"/><path fill="#07138E" d="M8.56381 12.0458L9.3702 11.9674C9.43658 12.6502 9.3863 13.2389 9.21333 13.7332L8.44861 13.4656C8.57917 13.0925 8.61958 12.6193 8.56381 12.0458Z"/><path stroke="#FECA00" stroke-width=".81" d="M13.4374 6.35547C13.4374 6.35547 14.7287 12.1635 10.7496 12.0629"/><path fill="#07138E" d="M13.3515 5.79651L12.5511 5.92177C13.1157 9.52972 12.6635 11.1611 11.3962 11.1165L11.3677 11.9262C13.3924 11.9975 13.9865 9.85407 13.3515 5.79651Z"/><path fill="#E10001" d="M12.5413 5.46558L11.7409 5.59084C12.3055 9.19878 11.8533 10.8302 10.586 10.7855L10.5575 11.5952C12.5822 11.6665 13.1763 9.52313 12.5413 5.46558Z"/><path fill="#07138E" d="M10.8804 12.0504L10.0749 11.963C10.0073 12.5865 10.0587 13.1266 10.2363 13.5814L10.991 13.2867C10.8651 12.9642 10.8259 12.5527 10.8804 12.0504Z"/><path fill="#908F89" d="M8.667 10.938H11.097999999999999V12.096H8.667z"/><path stroke="#FEE901" stroke-width=".625" d="M9.88191 11.25C10.5672 11.25 11.1591 10.8637 11.5677 10.2964C11.9766 9.72853 12.2199 8.95984 12.2199 8.125C12.2199 7.29016 11.9766 6.52147 11.5677 5.95364C11.1591 5.38627 10.5672 5 9.88191 5C9.19662 5 8.6047 5.38627 8.1961 5.95364C7.78718 6.52147 7.54395 7.29016 7.54395 8.125C7.54395 8.95984 7.78718 9.72853 8.1961 10.2964C8.6047 10.8637 9.19662 11.25 9.88191 11.25Z"/><mask id="EC_svg__c" width="6" height="8" x="7" y="4" mask-type="alpha" maskUnits="userSpaceOnUse"><path fill="#fff" stroke="#fff" stroke-width=".625" d="M9.88191 11.25C10.5672 11.25 11.1591 10.8637 11.5677 10.2964C11.9766 9.72853 12.2199 8.95984 12.2199 8.125C12.2199 7.29016 11.9766 6.52147 11.5677 5.95364C11.1591 5.38627 10.5672 5 9.88191 5C9.19662 5 8.6047 5.38627 8.1961 5.95364C7.78718 6.52147 7.54395 7.29016 7.54395 8.125C7.54395 8.95984 7.78718 9.72853 8.1961 10.2964C8.6047 10.8637 9.19662 11.25 9.88191 11.25Z"/></mask><g fill-rule="evenodd" clip-rule="evenodd" mask="url(#EC_svg__c)"><path fill="#8DDD61" d="M11.3488 9.62809C11.3488 9.62809 10.3641 9.09227 10.0815 8.90127C9.79891 8.71027 9.96206 8.28417 9.47532 8.39805C8.98857 8.51193 8.59753 8.71027 8.59753 9.25401C8.59753 9.79775 8.21538 10.1206 8.08514 9.74906C7.9549 9.37757 7.34249 7.64038 8.08514 7.64038C8.82779 7.64038 10.5637 8.02997 11.0747 8.02997C11.5857 8.02997 11.8832 8.29511 11.8832 8.77456C11.8832 9.41945 11.3488 9.62809 11.3488 9.62809Z"/><path fill="#FEE901" d="M9.8819 6.80145C10.1056 6.80145 10.287 6.61627 10.287 6.38785C10.287 6.15942 10.1056 5.97424 9.8819 5.97424C9.65817 5.97424 9.47681 6.15942 9.47681 6.38785C9.47681 6.61627 9.65817 6.80145 9.8819 6.80145Z"/><path fill="#F7FCFF" d="M8.54339 6.8378C8.54339 6.8378 9.01462 6.72383 9.66574 7.16261C10.3169 7.60139 11.8955 7.85125 11.8955 7.50693C11.8955 7.16261 11.8955 8.17764 11.8955 8.17764C11.8955 8.17764 8.39266 7.95955 8.20526 8.17764C8.01786 8.39574 7.99916 6.95969 8.20526 6.8378C8.41136 6.71591 8.54339 6.8378 8.54339 6.8378Z"/></g></g></g></svg>

<svg xmlns="http://www.w3.org/2000/svg" fill="none" viewBox="0 0 20 15"><mask id="EC_svg__a" width="20" height="15" x="0" y="0" maskUnits="userSpaceOnUse"><path fill="#fff" d="M0 0h20v15H0z"/></mask><g mask="url(#EC_svg__a)"><path fill="#2E42A5" fill-rule="evenodd" d="M0 0v15h20V0H0z" clip-rule="evenodd"/><mask id="EC_svg__b" width="20" height="15" x="0" y="0" maskUnits="userSpaceOnUse"><path fill="#fff" fill-rule="evenodd" d="M0 0v15h20V0H0z" clip-rule="evenodd"/></mask><g mask="url(#EC_svg__b)"><path fill="#FECA00" fill-rule="evenodd" d="M0 0v7.5h20V0H0z" clip-rule="evenodd"/><path fill="#E31D1C" fill-rule="evenodd" d="M0 11.25V15h20v-3.75H0z" clip-rule="evenodd"/><path fill="#7B2900" fill-rule="evenodd" d="M5.758 3.62c-.075-.17 2.82-1.029 3.036-1.029.217 0 .491.515.491.515l1.76.142s-.208-.657 0-.657 3.395 1.107 3.395 1.107-3.984.48-3.984.589c0 .108.261.701.261.701l-.736.242s.043-.716-.077-.716-.477.856-.477.856l-.35-1.083S5.833 3.79 5.758 3.62z" clip-rule="evenodd"/><path fill="#FECA00" d="M5.77 6.261l.788.189c-.824 3.447-.062 5.1 2.284 5.254l-.053.809C5.85 12.32 4.843 10.138 5.77 6.26z"/><path fill="#07138E" d="M6.25 5.796l.8.126c-.564 3.608-.112 5.24 1.156 5.194l.028.81c-2.025.071-2.619-2.072-1.984-6.13z"/><path fill="#E10001" d="M7.06 5.466l.8.125c-.564 3.608-.112 5.24 1.156 5.195l.028.81c-2.024.07-2.619-2.073-1.984-6.13z"/><path fill="#07138E" d="M8.564 12.046l.806-.079c.067.683.016 1.272-.157 1.766l-.764-.267c.13-.373.17-.847.115-1.42z"/><path stroke="#FECA00" stroke-width=".81" d="M13.437 6.355s1.292 5.808-2.687 5.708"/><path fill="#07138E" d="M13.351 5.796l-.8.126c.565 3.608.113 5.24-1.155 5.194l-.028.81c2.024.071 2.618-2.072 1.983-6.13z"/><path fill="#E10001" d="M12.541 5.466l-.8.125c.565 3.608.112 5.24-1.155 5.195l-.029.81c2.025.07 2.62-2.073 1.984-6.13z"/><path fill="#07138E" d="M10.88 12.05l-.805-.087c-.068.623-.016 1.164.161 1.618l.755-.294c-.126-.323-.165-.734-.11-1.237z"/><path fill="#908F89" d="M8.667 10.938h2.431v1.158H8.667z"/><path stroke="#FEE901" stroke-width=".625" d="M9.882 11.25c.685 0 1.277-.386 1.686-.954.409-.567.652-1.336.652-2.171 0-.835-.243-1.604-.652-2.171-.409-.568-1-.954-1.686-.954-.685 0-1.277.386-1.686.954-.409.567-.652 1.336-.652 2.171 0 .835.243 1.604.652 2.171.409.568 1 .954 1.686.954z"/><mask id="EC_svg__c" width="6" height="8" x="7" y="4" maskUnits="userSpaceOnUse"><path fill="#fff" stroke="#fff" stroke-width=".625" d="M9.882 11.25c.685 0 1.277-.386 1.686-.954.409-.567.652-1.336.652-2.171 0-.835-.243-1.604-.652-2.171-.409-.568-1-.954-1.686-.954-.685 0-1.277.386-1.686.954-.409.567-.652 1.336-.652 2.171 0 .835.243 1.604.652 2.171.409.568 1 .954 1.686.954z"/></mask><g fill-rule="evenodd" clip-rule="evenodd" mask="url(#EC_svg__c)"><path fill="#8DDD61" d="M11.349 9.628s-.985-.536-1.268-.727c-.282-.19-.119-.617-.606-.503-.486.114-.877.312-.877.856s-.383.867-.513.495c-.13-.371-.743-2.109 0-2.109s2.479.39 2.99.39c.51 0 .808.265.808.745 0 .644-.534.853-.534.853z"/><path fill="#FEE901" d="M9.882 6.801a.41.41 0 00.405-.413.41.41 0 00-.405-.414.41.41 0 00-.405.414.41.41 0 00.405.413z"/><path fill="#F7FCFF" d="M8.543 6.838s.472-.114 1.123.325c.65.438 2.23.688 2.23.344v.67s-3.503-.217-3.69 0c-.188.219-.207-1.217 0-1.34.205-.121.337 0 .337 0z"/></g></g></g></svg>
